X: 35420
T: Round Wagtail
R: jig
M: 6/8
K: Adorian
|:~g3 fge|dec BcA|~G3 Bcd|efg a2 d|
~g3 fgf|dec Bcd|efg afd|~g3 g2 d:|
|:B2 G d2 B|c2 A e2 c|Bcd gab|agf def|
~g3 fge|dec Bcd|efg afd|~g3 g2 d:|

